flaticon/dialogue/archive.svg

<svg xmlns="http://www.w3.org/2000/svg" width="32" height="32" viewBox="0 0 24 24">
    <path d="M 18.367188 2.070312 L 5.632812 2.070312 L 0.238281 7.046875 L 0 7.058594 L 0 21.929688 L 24 21.921875 L 24 7.265625 Z M 5.953125 2.898438 L 18.046875 2.898438 L 22.527344 7.035156 L 15.714844 7.039062 L 15.648438 7.371094 C 15.296875 9.09375 13.761719 10.34375 12 10.34375 C 10.242188 10.34375 8.710938 9.089844 8.351562 7.359375 L 8.285156 7.03125 L 1.472656 7.035156 Z M 23.171875 21.09375 L 0.828125 21.101562 L 0.828125 14.914062 L 7.628906 14.910156 C 8.1875 16.832031 9.96875 18.1875 12 18.1875 C 14.035156 18.1875 15.820312 16.828125 16.375 14.910156 L 23.171875 14.90625 Z M 8.5 14.910156 L 15.5 14.910156 C 14.980469 16.355469 13.582031 17.359375 12 17.359375 C 10.421875 17.359375 9.027344 16.355469 8.5 14.910156 Z M 15.714844 14.070312 L 15.714844 14.082031 L 8.289062 14.085938 L 8.285156 14.070312 L 0.828125 14.070312 L 0.828125 7.863281 L 7.625 7.859375 C 8.179688 9.796875 9.96875 11.171875 12 11.171875 C 14.039062 11.171875 15.828125 9.800781 16.378906 7.867188 L 23.171875 7.863281 L 23.171875 14.070312 Z M 15.714844 14.070312"/>
</svg>

<svg xmlns="http://www.w3.org/2000/svg" width="32" height="32" viewBox="0 0 24 24">
    <path d="M18.367 2.07H5.633L.238 7.047 0 7.059v14.87l24-.007V7.266zm-12.414.828h12.094l4.48 4.137-6.812.004-.067.332A3.734 3.734 0 0 1 12 10.344a3.746 3.746 0 0 1-3.648-2.985l-.067-.328-6.812.004zm17.219 18.196l-22.344.008v-6.188l6.8-.004A4.563 4.563 0 0 0 12 18.187c2.035 0 3.82-1.359 4.375-3.277l6.797-.004zM8.5 14.91h7a3.728 3.728 0 0 1-3.5 2.45 3.74 3.74 0 0 1-3.5-2.45zm7.215-.84v.012l-7.426.004-.004-.016H.828V7.863l6.797-.004C8.18 9.797 9.969 11.172 12 11.172a4.569 4.569 0 0 0 4.379-3.305l6.793-.004v6.207zm0 0"/>
</svg>
